packages/orbit-components/src/icons/svg/location-d.svg

<!--character:70:550:287-->
  <svg width="24" height="24" viewBox="0 0 24 24" >
<path   d="M12.042 2C7.72216 2 4.14999 5.57217 4.14999 9.892C4.14999 15.2918 9.54979 20.2762 11.2113 21.6885C11.7097 22.1038 12.3743 22.1038 12.7897 21.6885C14.4511 20.2762 19.8509 15.3749 19.8509 9.892C19.934 5.57217 16.3618 2 12.042 2ZM11.5436 6.98441H10.4636C10.3805 6.98441 10.3805 7.06748 10.3805 7.15056V12.3011C10.3805 12.3842 10.4636 12.4673 10.5467 12.4673H11.6266C13.0389 12.4673 14.285 11.6365 14.285 9.72584C14.285 7.81515 13.0389 6.98441 11.5436 6.98441ZM9.21748 14.4611H11.6266C14.4511 14.4611 16.3618 12.6334 16.3618 9.80893C16.3618 6.90135 14.4511 5.07373 11.6266 5.07373H9.21748C8.63596 5.07373 8.22059 5.4891 8.22059 6.07061V13.4642C8.22059 14.0457 8.63596 14.4611 9.21748 14.4611Z" />
</svg>

<!--character:70:550:287-->
<svg width="24" height="24" viewBox="0 0 24 24" xmlns="http://www.w3.org/2000/svg"><path d="M11.5436 6.9844h-1.08c-.083 0-.083.0831-.083.1662v5.1505c0 .0831.083.1662.166.1662h1.08c1.4123 0 2.6584-.8307 2.6584-2.7414s-1.2461-2.7415-2.7414-2.7415zM12.042 2C7.7222 2 4.15 5.5722 4.15 9.892c0 5.3998 5.3998 10.3842 7.0613 11.7965.4984.4153 1.163.4153 1.5784 0 1.6614-1.4123 7.0612-6.3136 7.0612-11.7965C19.934 5.5722 16.362 2 12.042 2zm-.4154 12.461H9.2175c-.5815 0-.9969-.4153-.9969-.9968V6.0706c0-.5815.4154-.9969.9969-.9969h2.4091c2.8245 0 4.7352 1.8276 4.7352 4.7352 0 2.8245-1.9107 4.6522-4.7352 4.6522z"/></svg>
